X: 7
T: The Green Mountain
R: reel
M: 4/4
L: 1/8
K: Dmaj
|:B|AFF AFE|DFF ABe|fdd edB|Afd edB|AFF AFE|DFF ABe|fdd edB|AFE D2:||:e|faa baf|dfd ede|fdd edB|Afd edB|faa baf|dfd ede|fdd edB|AFE D2:|


Tune 166	Setting 12798

